;FLAVOR:Marlin
;TIME:1934
;Filament used: 0.897432m
;Layer height: 0.15
;MINX:72.475
;MINY:76.731
;MINZ:0.3
;MAXX:130.325
;MAXY:123.269
;MAXZ:33.75
;POSTPROCESSED
;Generated with Cura_SteamEngine 5.0.0
M140 S60
M105
M190 S60
M104 S210
M105
M109 S210
M82 ;absolute extrusion mode
G21 ;metric values
 G90 ;absolute positioning
 M82 ;set extruder to absolute mode
 M107 ;start with the fan off
 G28 X0 Y0 ;move X/Y to min endstops
 G28 Z0 ;move Z to min endstops
 G1 Z15.0 F120 ;move the platform down 15mm
 G92 E0 ;zero the extruded length
 G1 F200 E6 ;extrude 6 mm of feed stock
 G92 E0 ;zero the extruded length again
 G1 F120 
 ;Put printing message on LCD screen
 M117 Printing...
G92 E0
G92 E0
G1 F2400 E-3
;LAYER_COUNT:224
;LAYER:0
M107
G0 F3600 X74.924 Y82.8 Z0.3
G0 X72.475 Y89.841
;TYPE:SKIRT
G1 F2400 E0
G1 F1800 X72.48 Y88.442 E0.0698
G1 X72.523 Y87.654 E0.10917
G1 X72.645 Y86.873 E0.14861
G1 X72.846 Y86.11 E0.18797
G1 X73.122 Y85.37 E0.22737
G1 X73.473 Y84.662 E0.2668
G1 X73.892 Y83.993 E0.30618
G1 X74.378 Y83.371 E0.34556
G1 X74.924 Y82.8 E0.38498
G1 X75.524 Y82.287 E0.42436
G1 X76.174 Y81.838 E0.46377
G1 X76.866 Y81.457 E0.50318
G1 X77.592 Y81.148 E0.54255
G1 X78.346 Y80.913 E0.58195
G1 X79.12 Y80.757 E0.62134
G1 X79.906 Y80.679 E0.66075
G1 X80.696 Y80.681 E0.70016
G1 X82.033 Y80.822 E0.76724
G1 X82.811 Y80.953 E0.8066
G1 X83.54 Y81.154 E0.84432
G1 X83.977 Y81.017 E0.86717
G1 X84.75 Y80.859 E0.90653
G1 X85.929 Y80.769 E0.96553
G1 X86.714 Y80.769 E1.00469
G1 X87.503 Y80.809 E1.0441
G1 X88.283 Y80.928 E1.08347
G1 X88.844 Y81.073 E1.11238
G1 X89.422 Y80.077 E1.16983
G1 X89.905 Y79.453 E1.2092
G1 X90.448 Y78.88 E1.24858
G1 X91.047 Y78.365 E1.28799
G1 X91.695 Y77.914 E1.32738
G1 X92.386 Y77.53 E1.36682
G1 X93.111 Y77.218 E1.4062
G1 X93.864 Y76.981 E1.44558
G1 X94.638 Y76.822 E1.485
G1 X95.423 Y76.741 E1.52437
G1 X95.825 Y76.731 E1.54444
G1 X122.525 Y76.731 E2.8765
G1 X123.314 Y76.771 E2.91592
G1 X124.094 Y76.89 E2.95528
G1 X124.859 Y77.088 E2.99471
G1 X125.599 Y77.362 E3.03407
G1 X126.308 Y77.71 E3.07348
G1 X126.979 Y78.128 E3.11292
G1 X127.603 Y78.611 E3.15229
G1 X128.176 Y79.154 E3.19167
G1 X128.691 Y79.753 E3.23108
G1 X129.142 Y80.401 E3.27047
G1 X129.526 Y81.092 E3.30991
G1 X129.838 Y81.817 E3.34929
G1 X130.075 Y82.57 E3.38867
G1 X130.234 Y83.344 E3.42809
G1 X130.315 Y84.129 E3.46746
G1 X130.325 Y84.531 E3.48753
G1 X130.325 Y92.406 E3.88041
G1 X130.285 Y93.195 E3.91983
G1 X130.166 Y93.975 E3.95919
G1 X129.968 Y94.74 E3.99861
G1 X129.694 Y95.48 E4.03798
G1 X129.346 Y96.189 E4.07739
G1 X128.928 Y96.86 E4.11683
G1 X128.445 Y97.484 E4.15619
G1 X127.902 Y98.057 E4.19558
G1 X127.303 Y98.572 E4.23499
G1 X126.655 Y99.023 E4.27438
G1 X125.964 Y99.407 E4.31382
G1 X125.239 Y99.719 E4.35319
G1 X124.486 Y99.956 E4.39258
G1 X123.712 Y100.115 E4.432
G1 X122.927 Y100.196 E4.47137
G1 X122.525 Y100.206 E4.49143
G1 X119.35 Y100.206 E4.64984
G1 X119.35 Y115.469 E5.41131
G1 X119.31 Y116.258 E5.45072
G1 X119.191 Y117.038 E5.49009
G1 X118.993 Y117.803 E5.52951
G1 X118.719 Y118.543 E5.56888
G1 X118.371 Y119.252 E5.60828
G1 X117.953 Y119.923 E5.64772
G1 X117.47 Y120.547 E5.68709
G1 X116.927 Y121.12 E5.72648
G1 X116.328 Y121.635 E5.76589
G1 X115.68 Y122.086 E5.80527
G1 X114.989 Y122.47 E5.84471
G1 X114.264 Y122.782 E5.88409
G1 X113.511 Y123.019 E5.92348
G1 X112.737 Y123.178 E5.9629
G1 X111.952 Y123.259 E6.00227
G1 X111.55 Y123.269 E6.02233
G1 X106.55 Y123.269 E6.27178
G1 X105.761 Y123.229 E6.3112
G1 X104.981 Y123.11 E6.35056
G1 X104.216 Y122.912 E6.38998
G1 X103.476 Y122.638 E6.42935
G1 X102.767 Y122.29 E6.46876
G1 X102.096 Y121.872 E6.5082
G1 X101.472 Y121.389 E6.54756
G1 X100.899 Y120.846 E6.58695
G1 X100.384 Y120.247 E6.62636
G1 X99.933 Y119.599 E6.66575
G1 X99.549 Y118.908 E6.70519
G1 X99.237 Y118.183 E6.74457
G1 X99 Y117.43 E6.78395
G1 X98.841 Y116.656 E6.82337
G1 X98.76 Y115.871 E6.86274
G1 X98.75 Y115.469 E6.8828
G1 X98.75 Y100.206 E7.64428
G1 X95.825 Y100.206 E7.79021
G1 X95.036 Y100.166 E7.82962
G1 X94.256 Y100.047 E7.86899
G1 X93.491 Y99.849 E7.90841
G1 X92.751 Y99.575 E7.94778
G1 X92.576 Y99.489 E7.95751
G1 X92.113 Y100.014 E7.99243
G1 X91.534 Y100.551 E8.03183
G1 X90.904 Y101.027 E8.07122
G1 X90.229 Y101.437 E8.11062
G1 X89.404 Y101.821 E8.15602
G1 X88.409 Y102.173 E8.20868
G1 X87.639 Y102.35 E8.24809
G1 X86.856 Y102.448 E8.28746
G1 X86.258 Y102.469 E8.31732
G1 X85.111 Y102.426 E8.37458
G1 X84.33 Y102.304 E8.41402
G1 X83.856 Y102.175 E8.43852
G1 X82.911 Y102.332 E8.48632
G1 X82.157 Y102.369 E8.52398
G1 X81.005 Y102.329 E8.58149
G1 X80.225 Y102.21 E8.62085
G1 X79.335 Y101.971 E8.66683
G1 X78.295 Y101.584 E8.72219
G1 X77.751 Y101.313 E8.75251
G1 X76.71 Y100.699 E8.81281
G1 X76.082 Y100.22 E8.85221
G1 X75.35 Y99.514 E8.90295
G1 X74.67 Y98.705 E8.95568
G1 X74.233 Y98.047 E8.99508
G1 X73.836 Y97.285 E9.03795
G1 X73.366 Y96.15 E9.09924
G1 X73.153 Y95.389 E9.13866
G1 X73.018 Y94.611 E9.17806
G1 X72.961 Y93.669 E9.22514
G1 X72.961 Y92.576 E9.27967
G1 X72.731 Y91.851 E9.31762
G1 X72.569 Y91.078 E9.35702
G1 X72.487 Y90.293 E9.3964
G1 X72.475 Y89.841 E9.41896
G0 F3600 X72.875 Y89.843
G1 F1800 X72.88 Y88.444 E9.48875
G1 X72.923 Y87.676 E9.52713
G1 X73.045 Y86.916 E9.56553
G1 X73.245 Y86.174 E9.60387
G1 X73.522 Y85.456 E9.64226
G1 X73.871 Y84.771 E9.68062
G1 X74.29 Y84.125 E9.71903
G1 X74.773 Y83.527 E9.75738
G1 X75.316 Y82.982 E9.79577
G1 X75.912 Y82.496 E9.83413
G1 X76.556 Y82.075 E9.87252
G1 X77.24 Y81.723 E9.9109
G1 X77.957 Y81.444 E9.94928
G1 X78.698 Y81.241 E9.98761
G1 X79.457 Y81.116 E10.02599
G1 X80.225 Y81.07 E10.06437
G1 X81.141 Y81.12 E10.11014
G1 X81.986 Y81.219 E10.15259
G1 X82.744 Y81.348 E10.19095
G1 X83.529 Y81.572 E10.23167
G1 X84.329 Y81.344 E10.27318
G1 X85.088 Y81.217 E10.31157
G1 X85.929 Y81.169 E10.35359
G1 X86.714 Y81.169 E10.39276
G1 X87.482 Y81.209 E10.43113
G1 X88.242 Y81.328 E10.4695
G1 X88.985 Y81.526 E10.50787
G1 X89.056 Y81.541 E10.51149
G1 X89.403 Y80.855 E10.54984
G1 X89.819 Y80.208 E10.58822
G1 X90.3 Y79.608 E10.62658
G1 X90.841 Y79.061 E10.66496
G1 X91.436 Y78.573 E10.70336
G1 X92.078 Y78.15 E10.74171
G1 X92.761 Y77.795 E10.78012
G1 X93.476 Y77.514 E10.81844
G1 X94.218 Y77.308 E10.85686
G1 X94.976 Y77.18 E10.89521
G1 X95.825 Y77.131 E10.93764
G1 X122.525 Y77.131 E12.26971
G1 X123.293 Y77.171 E12.30808
G1 X124.053 Y77.29 E12.34646
G1 X124.796 Y77.488 E12.38482
G1 X125.515 Y77.762 E12.42321
G1 X126.201 Y78.109 E12.46156
G1 X126.848 Y78.525 E12.49994
G1 X127.448 Y79.006 E12.5383
G1 X127.995 Y79.547 E12.57668
G1 X128.483 Y80.142 E12.61508
G1 X128.906 Y80.784 E12.65343
G1 X129.261 Y81.467 E12.69184
G1 X129.542 Y82.182 E12.73016
G1 X129.748 Y82.924 E12.76858
G1 X129.876 Y83.682 E12.80693
G1 X129.925 Y84.531 E12.84936
G1 X129.925 Y92.406 E13.24225
G1 X129.885 Y93.174 E13.28061
G1 X129.766 Y93.934 E13.31899
G1 X129.568 Y94.677 E13.35735
G1 X129.294 Y95.396 E13.39574
G1 X128.947 Y96.082 E13.4341
G1 X128.531 Y96.729 E13.47247
G1 X128.05 Y97.329 E13.51084
G1 X127.509 Y97.876 E13.54922
G1 X126.914 Y98.364 E13.58761
G1 X126.272 Y98.787 E13.62597
G1 X125.589 Y99.142 E13.66437
G1 X124.874 Y99.423 E13.7027
G1 X124.132 Y99.629 E13.74112
G1 X123.374 Y99.757 E13.77947
G1 X122.525 Y99.806 E13.8219
G1 X118.95 Y99.806 E14.00025
G1 X118.95 Y115.469 E14.78168
G1 X118.91 Y116.237 E14.82005
G1 X118.791 Y116.997 E14.85843
G1 X118.593 Y117.74 E14.89679
G1 X118.319 Y118.459 E14.93518
G1 X117.972 Y119.145 E14.97353
G1 X117.556 Y119.792 E15.01191
G1 X117.075 Y120.392 E15.05028
G1 X116.534 Y120.939 E15.08866
G1 X115.939 Y121.427 E15.12705
G1 X115.297 Y121.85 E15.16541
G1 X114.614 Y122.205 E15.20381
G1 X113.899 Y122.486 E15.24214
G1 X113.157 Y122.692 E15.28056
G1 X112.399 Y122.82 E15.31891
G1 X111.55 Y122.869 E15.36134
G1 X106.55 Y122.869 E15.61079
G1 X105.782 Y122.829 E15.64915
G1 X105.022 Y122.71 E15.68753
G1 X104.279 Y122.512 E15.72589
G1 X103.56 Y122.238 E15.76428
G1 X102.874 Y121.891 E15.80264
G1 X102.227 Y121.475 E15.84101
G1 X101.627 Y120.994 E15.87938
G1 X101.08 Y120.453 E15.91776
G1 X100.592 Y119.858 E15.95615
G1 X100.169 Y119.216 E15.99451
G1 X99.814 Y118.533 E16.03291
G1 X99.533 Y117.818 E16.07124
G1 X99.327 Y117.076 E16.10966
G1 X99.199 Y116.318 E16.14801
G1 X99.15 Y115.469 E16.19044
G1 X99.15 Y99.806 E16.97187
G1 X95.825 Y99.806 E17.13775
G1 X95.057 Y99.766 E17.17612
G1 X94.297 Y99.647 E17.2145
G1 X93.554 Y99.449 E17.25286
G1 X92.835 Y99.175 E17.29125
G1 X92.457 Y98.984 E17.31238
G1 X91.799 Y99.764 E17.36329
G1 X91.232 Y100.283 E17.40164
G1 X90.613 Y100.741 E17.44005
G1 X89.951 Y101.131 E17.47839
G1 X89.256 Y101.449 E17.51652
G1 X88.28 Y101.794 E17.56816
G1 X87.53 Y101.963 E17.60652
G1 X86.766 Y102.053 E17.6449
G1 X86.259 Y102.069 E17.6702
G1 X85.132 Y102.026 E17.72647
G1 X84.373 Y101.904 E17.76482
G1 X83.856 Y101.761 E17.79159
G1 X82.793 Y101.942 E17.84538
G1 X82.157 Y101.969 E17.87714
G1 X81.026 Y101.929 E17.9336
G1 X80.266 Y101.81 E17.97198
G1 X79.461 Y101.592 E18.01359
G1 X78.441 Y101.21 E18.06793
G1 X77.943 Y100.962 E18.09569
G1 X76.92 Y100.358 E18.15495
G1 X76.31 Y99.889 E18.19334
G1 X75.646 Y99.245 E18.23949
G1 X74.979 Y98.452 E18.29119
G1 X74.557 Y97.809 E18.32956
G1 X74.2 Y97.12 E18.36827
G1 X73.739 Y96.003 E18.42856
G1 X73.534 Y95.262 E18.46692
G1 X73.408 Y94.503 E18.5053
G1 X73.361 Y93.669 E18.54698
G1 X73.361 Y92.487 E18.60595
G1 X73.079 Y91.594 E18.65267
G1 X72.939 Y90.838 E18.69103
G1 X72.875 Y89.843 E18.74077
G0 F3600 X73.275 Y89.844
G1 F1800 X73.28 Y88.445 E18.81057
G1 X73.323 Y87.698 E18.8479
G1 X73.445 Y86.96 E18.88522
G1 X73.645 Y86.239 E18.92254
G1 X73.921 Y85.544 E18.95985
G1 X74.269 Y84.882 E18.99716
G1 X74.687 Y84.261 E19.03451
G1 X75.168 Y83.688 E19.07184
G1 X75.707 Y83.17 E19.10913
G1 X76.299 Y82.712 E19.14647
G1 X76.936 Y82.32 E19.18379
G1 X77.611 Y81.999 E19.22108
G1 X78.317 Y81.751 E19.25841
G1 X79.045 Y81.58 E19.29572
G1 X79.788 Y81.487 E19.33308
G1 X80.536 Y81.475 E19.3704
G1 X81.095 Y81.518 E19.39837
G1 X81.94 Y81.617 E19.44082
G1 X82.677 Y81.743 E19.47812
G1 X83.396 Y81.948 E19.51542
G1 X83.531 Y82.003 E19.52269
G1 X83.949 Y81.855 E19.54482
G1 X84.677 Y81.682 E19.58215
G1 X85.419 Y81.588 E19.61946
G1 X85.929 Y81.569 E19.64492
G1 X86.714 Y81.569 E19.68409
G1 X87.461 Y81.609 E19.72141
G1 X88.199 Y81.728 E19.7587
G1 X88.921 Y81.926 E19.79605
G1 X89.282 Y82.068 E19.81541
G1 X89.455 Y81.628 E19.83899
G1 X89.802 Y80.965 E19.87633
G1 X90.217 Y80.342 E19.91367
G1 X90.696 Y79.768 E19.95097
G1 X91.233 Y79.247 E19.9883
G1 X91.823 Y78.788 E20.02559
G1 X92.459 Y78.393 E20.06295
G1 X93.133 Y78.069 E20.10026
G1 X93.838 Y77.819 E20.13757
G1 X94.566 Y77.645 E20.17492
G1 X95.308 Y77.55 E20.21224
G1 X95.825 Y77.531 E20.23805
G1 X122.525 Y77.531 E21.57012
G1 X123.272 Y77.571 E21.60744
G1 X124.01 Y77.69 E21.64473
G1 X124.732 Y77.888 E21.68208
G1 X125.428 Y78.161 E21.71938
G1 X126.091 Y78.508 E21.75672
G1 X126.714 Y78.923 E21.79406
G1 X127.288 Y79.402 E21.83136
G1 X127.809 Y79.939 E21.86869
G1 X128.268 Y80.529 E21.90598
G1 X128.663 Y81.165 E21.94333
G1 X128.987 Y81.839 E21.98064
G1 X129.237 Y82.544 E22.01796
G1 X129.411 Y83.272 E22.05531
G1 X129.506 Y84.014 E22.09263
G1 X129.525 Y84.531 E22.11844
G1 X129.525 Y92.406 E22.51132
G1 X129.485 Y93.153 E22.54864
G1 X129.366 Y93.891 E22.58594
G1 X129.168 Y94.613 E22.62329
G1 X128.895 Y95.309 E22.66059
G1 X128.548 Y95.972 E22.69792
G1 X128.133 Y96.595 E22.73527
G1 X127.654 Y97.169 E22.77257
G1 X127.117 Y97.69 E22.80989
G1 X126.527 Y98.149 E22.84719
G1 X125.891 Y98.544 E22.88454
G1 X125.217 Y98.868 E22.92185
G1 X124.512 Y99.118 E22.95917
G1 X123.784 Y99.292 E22.99651
G1 X123.042 Y99.387 E23.03383
G1 X122.525 Y99.406 E23.05964
G1 X118.55 Y99.406 E23.25796
G1 X118.55 Y115.469 E24.05934
G1 X118.51 Y116.216 E24.09666
G1 X118.391 Y116.954 E24.13396
G1 X118.193 Y117.676 E24.17131
G1 X117.92 Y118.372 E24.20861
G1 X117.573 Y119.035 E24.24594
G1 X117.158 Y119.658 E24.28329
G1 X116.679 Y120.232 E24.32059
G1 X116.142 Y120.753 E24.35791
G1 X115.552 Y121.212 E24.39521
G1 X114.916 Y121.607 E24.43256
G1 X114.242 Y121.931 E24.46987
G1 X113.537 Y122.181 E24.50719
G1 X112.809 Y122.355 E24.54453
G1 X112.067 Y122.45 E24.58185
G1 X111.55 Y122.469 E24.60766
G1 X106.55 Y122.469 E24.85711
G1 X105.803 Y122.429 E24.89443
G1 X105.065 Y122.31 E24.93173
G1 X104.343 Y122.112 E24.96908
G1 X103.647 Y121.839 E25.00638
G1 X102.984 Y121.492 E25.04371
G1 X102.361 Y121.077 E25.08106
G1 X101.787 Y120.598 E25.11836
G1 X101.266 Y120.061 E25.15569
G1 X100.807 Y119.471 E25.19298
G1 X100.412 Y118.835 E25.23033
G1 X100.088 Y118.161 E25.26764
G1 X99.838 Y117.456 E25.30496
G1 X99.664 Y116.728 E25.3423
G1 X99.569 Y115.986 E25.37962
G1 X99.55 Y115.469 E25.40543
G1 X99.55 Y99.406 E26.20682
G1 X95.825 Y99.406 E26.39266
G1 X95.078 Y99.366 E26.42998
G1 X94.34 Y99.247 E26.46728
G1 X93.618 Y99.049 E26.50463
G1 X92.922 Y98.776 E26.54193
G1 X92.334 Y98.468 E26.57504
G1 X91.984 Y98.955 E26.60496
G1 X91.485 Y99.512 E26.64227
G1 X90.93 Y100.013 E26.67957
G1 X90.324 Y100.452 E26.71691
G1 X89.674 Y100.824 E26.75427
G1 X89.109 Y101.078 E26.78518
G1 X88.152 Y101.414 E26.83578
G1 X87.422 Y101.575 E26.87307
G1 X86.679 Y101.658 E26.91037
G1 X85.902 Y101.668 E26.94914
G1 X85.155 Y101.626 E26.98647
G1 X84.416 Y101.504 E27.02384
G1 X83.858 Y101.349 E27.05273
G1 X83.419 Y101.454 E27.07525
G1 X82.677 Y101.55 E27.11258
G1 X82.157 Y101.569 E27.13854
G1 X81.047 Y101.529 E27.19395
G1 X80.309 Y101.41 E27.23124
G1 X79.587 Y101.212 E27.26859
G1 X78.587 Y100.838 E27.32186
G1 X78.135 Y100.611 E27.34709
G1 X77.13 Y100.017 E27.40534
G1 X76.539 Y99.558 E27.44267
G1 X75.942 Y98.976 E27.48427
G1 X75.29 Y98.198 E27.53491
G1 X74.881 Y97.571 E27.57226
G1 X74.565 Y96.955 E27.6068
G1 X74.112 Y95.858 E27.66601
G1 X73.916 Y95.136 E27.70333
G1 X73.799 Y94.397 E27.74066
G1 X73.761 Y93.669 E27.77703
G1 X73.761 Y92.404 E27.84014
G1 X73.628 Y92.063 E27.8584
G1 X73.432 Y91.341 E27.89573
G1 X73.314 Y90.602 E27.93306
G1 X73.275 Y89.844 E27.97093
G0 F3600 X73.675 Y89.845
G1 F1800 X73.68 Y88.446 E28.04073
G1 X73.723 Y87.721 E28.07696
G1 X73.845 Y87.005 E28.1132
G1 X74.045 Y86.307 E28.14942
G1 X74.32 Y85.635 E28.18565
G1 X74.668 Y84.997 E28.2219
G1 X75.083 Y84.401 E28.25814
G1 X75.562 Y83.855 E28.29437
G1 X76.098 Y83.364 E28.33064
G1 X76.684 Y82.936 E28.36684
G1 X77.314 Y82.574 E28.40309
G1 X77.98 Y82.284 E28.43933
G1 X78.673 Y82.069 E28.47553
G1 X79.387 Y81.931 E28.51181
G1 X80.111 Y81.872 E28.54805
G1 X81.048 Y81.915 E28.59485
G1 X81.893 Y82.014 E28.63729
G1 X82.609 Y82.138 E28.67355
G1 X83.306 Y82.34 E28.70975
G1 X83.522 Y82.429 E28.72141
G1 X84.306 Y82.172 E28.76257
G1 X85.019 Y82.032 E28.79882
G1 X85.929 Y81.969 E28.84433
G1 X86.714 Y81.969 E28.88349
G1 X87.439 Y82.009 E28.91972
G1 X88.156 Y82.128 E28.95598
G1 X88.855 Y82.326 E28.99222
G1 X89.523 Y82.597 E29.02819
G1 X89.855 Y81.717 E29.07511
G1 X90.2 Y81.078 E29.11134
G1 X90.614 Y80.481 E29.14759
G1 X91.09 Y79.933 E29.1838
G1 X91.624 Y79.44 E29.22006
G1 X92.209 Y79.01 E29.25628
G1 X92.838 Y78.646 E29.29254
G1 X93.503 Y78.353 E29.32879
G1 X94.196 Y78.135 E29.36504
G1 X94.908 Y77.995 E29.40124
G1 X95.825 Y77.931 E29.4471
G1 X122.525 Y77.931 E30.77917
G1 X123.25 Y77.971 E30.81539
G1 X123.967 Y78.09 E30.85165
G1 X124.666 Y78.288 E30.8879
G1 X125.339 Y78.561 E30.92413
G1 X125.978 Y78.906 E30.96036
G1 X126.575 Y79.32 E30.99661
G1 X127.123 Y79.796 E31.03282
G1 X127.616 Y80.33 E31.06908
G1 X128.046 Y80.915 E31.1053
G1 X128.41 Y81.544 E31.14156
G1 X128.703 Y82.209 E31.17781
G1 X128.921 Y82.902 E31.21406
G1 X129.061 Y83.614 E31.25026
G1 X129.125 Y84.531 E31.29612
G1 X129.125 Y92.406 E31.68901
G1 X129.085 Y93.131 E31.72523
G1 X128.966 Y93.848 E31.76149
