;FLAVOR:Marlin
;TIME:2135
;Filament used: 0.954579m
;Layer height: 0.15
;MINX:78.8
;MINY:65.6
;MINZ:0.3
;MAXX:121.1
;MAXY:108.9
;MAXZ:32.7
;POSTPROCESSED
;Generated with Cura_SteamEngine 5.0.0
M140 S60
M105
M190 S60
M104 S210
M105
M109 S210
M82 ;absolute extrusion mode
G21 ;metric values
 G90 ;absolute positioning
 M82 ;set extruder to absolute mode
 M107 ;start with the fan off
 G28 X0 Y0 ;move X/Y to min endstops
 G28 Z0 ;move Z to min endstops
 G1 Z15.0 F120 ;move the platform down 15mm
 G92 E0 ;zero the extruded length
 G1 F200 E6 ;extrude 6 mm of feed stock
 G92 E0 ;zero the extruded length again
 G1 F120 
 ;Put printing message on LCD screen
 M117 Printing...
G92 E0
G92 E0
G1 F2400 E-3
;LAYER_COUNT:217
;LAYER:0
M107
G0 F3600 X80.68 Y68.322 Z0.3
G0 X78.8 Y73.4
;TYPE:SKIRT
G1 F2400 E0
G1 F1800 X78.84 Y72.611 E0.03941
G1 X78.959 Y71.831 E0.07878
G1 X79.157 Y71.066 E0.1182
G1 X79.431 Y70.326 E0.15757
G1 X79.779 Y69.617 E0.19697
G1 X80.197 Y68.946 E0.23641
G1 X80.68 Y68.322 E0.27578
G1 X81.223 Y67.749 E0.31517
G1 X81.822 Y67.234 E0.35458
G1 X82.47 Y66.783 E0.39397
G1 X83.161 Y66.399 E0.43341
G1 X83.886 Y66.087 E0.47278
G1 X84.639 Y65.85 E0.51217
G1 X85.413 Y65.691 E0.55159
G1 X86.198 Y65.61 E0.59096
G1 X86.6 Y65.6 E0.61102
G1 X89.325 Y65.6 E0.74697
G1 X90.114 Y65.64 E0.78639
G1 X90.894 Y65.759 E0.82575
G1 X91.659 Y65.957 E0.86518
G1 X92.399 Y66.231 E0.90454
G1 X93.108 Y66.579 E0.94395
G1 X93.322 Y66.712 E0.95652
G1 X93.886 Y66.399 E0.9887
G1 X94.611 Y66.087 E1.02808
G1 X95.364 Y65.85 E1.06746
G1 X96.138 Y65.691 E1.10688
G1 X96.923 Y65.61 E1.14625
G1 X97.325 Y65.6 E1.16631
G1 X102.325 Y65.6 E1.41577
G1 X103.114 Y65.64 E1.45518
G1 X103.894 Y65.759 E1.49454
G1 X104.659 Y65.957 E1.53397
G1 X105.399 Y66.231 E1.57334
G1 X106.108 Y66.579 E1.61274
G1 X106.322 Y66.712 E1.62531
G1 X106.886 Y66.399 E1.65749
G1 X107.611 Y66.087 E1.69687
G1 X108.364 Y65.85 E1.73625
G1 X109.138 Y65.691 E1.77567
G1 X109.923 Y65.61 E1.81505
G1 X110.325 Y65.6 E1.83511
G1 X113.3 Y65.6 E1.98353
G1 X114.089 Y65.64 E2.02294
G1 X114.869 Y65.759 E2.06231
G1 X115.634 Y65.957 E2.10173
G1 X116.374 Y66.231 E2.1411
G1 X117.083 Y66.579 E2.1805
G1 X117.754 Y66.997 E2.21995
G1 X118.378 Y67.48 E2.25931
G1 X118.951 Y68.023 E2.2987
G1 X119.466 Y68.622 E2.33811
G1 X119.917 Y69.27 E2.3775
G1 X120.301 Y69.961 E2.41694
G1 X120.613 Y70.686 E2.45631
G1 X120.85 Y71.439 E2.4957
G1 X121.009 Y72.213 E2.53512
G1 X121.09 Y72.998 E2.57449
G1 X121.1 Y73.4 E2.59455
G1 X121.1 Y81.275 E2.98744
G1 X121.06 Y82.064 E3.02685
G1 X120.941 Y82.844 E3.06622
G1 X120.743 Y83.609 E3.10564
G1 X120.469 Y84.349 E3.14501
G1 X120.121 Y85.058 E3.18441
G1 X119.703 Y85.729 E3.22385
G1 X119.22 Y86.353 E3.26322
G1 X118.677 Y86.926 E3.3026
G1 X118.078 Y87.441 E3.34202
G1 X117.43 Y87.892 E3.3814
G1 X116.739 Y88.276 E3.42084
G1 X116.014 Y88.588 E3.46022
G1 X115.261 Y88.825 E3.49961
G1 X114.487 Y88.984 E3.53903
G1 X113.702 Y89.065 E3.5784
G1 X113.3 Y89.075 E3.59846
G1 X110.325 Y89.075 E3.74688
G1 X110.125 Y89.065 E3.75687
G1 X110.125 Y90.555 E3.83121
G1 X110.344 Y90.87 E3.85035
G1 X110.728 Y91.561 E3.88979
G1 X111.04 Y92.286 E3.92917
G1 X111.277 Y93.039 E3.96855
G1 X111.436 Y93.813 E4.00797
G1 X111.526 Y94.877 E4.06125
G1 X111.611 Y100.277 E4.33069
G1 X111.583 Y101.066 E4.37007
G1 X111.476 Y101.849 E4.4095
G1 X111.29 Y102.616 E4.44888
G1 X111.028 Y103.361 E4.48828
G1 X110.763 Y103.938 E4.51995
G1 X110.509 Y104.437 E4.54789
G1 X110.116 Y105.122 E4.58729
G1 X109.439 Y106.023 E4.64351
G1 X108.803 Y106.692 E4.68957
G1 X108.2 Y107.202 E4.72897
G1 X107.548 Y107.649 E4.76841
G1 X106.855 Y108.027 E4.80779
G1 X106.127 Y108.333 E4.84719
G1 X105.324 Y108.585 E4.88918
G1 X104.556 Y108.768 E4.92856
G1 X103.773 Y108.873 E4.96798
G1 X103.129 Y108.9 E5.00014
G1 X102.62 Y108.9 E5.02553
G1 X101.831 Y108.86 E5.06494
G1 X100.769 Y108.677 E5.11871
G1 X99.776 Y108.404 E5.17009
G1 X98.686 Y108.685 E5.22625
G1 X97.902 Y108.781 E5.26565
G1 X97.352 Y108.8 E5.29311
G1 X96.839 Y108.8 E5.3187
G1 X96.05 Y108.76 E5.35811
G1 X95.032 Y108.588 E5.40962
G1 X94.608 Y108.487 E5.43137
G1 X93.567 Y108.161 E5.48579
G1 X93.057 Y107.961 E5.51312
G1 X92.338 Y107.635 E5.55251
G1 X91.655 Y107.239 E5.5919
G1 X91.086 Y106.832 E5.6268
G1 X90.239 Y106.116 E5.68213
G1 X89.699 Y105.539 E5.72156
G1 X89.079 Y104.698 E5.77368
G1 X88.432 Y103.611 E5.83679
G1 X88.113 Y102.889 E5.87617
G1 X87.868 Y102.138 E5.91559
G1 X87.7 Y101.366 E5.955
G1 X87.612 Y100.581 E5.99441
G1 X87.597 Y99.465 E6.05009
G1 X87.234 Y98.5 E6.10153
G1 X87.05 Y97.732 E6.14093
G1 X86.944 Y96.949 E6.18035
G1 X86.917 Y96.3 E6.21276
G1 X86.917 Y94.9 E6.2826
G1 X86.957 Y94.111 E6.32202
G1 X87.076 Y93.331 E6.36138
G1 X87.274 Y92.566 E6.40081
G1 X87.548 Y91.826 E6.44017
G1 X87.896 Y91.117 E6.47958
G1 X88.314 Y90.446 E6.51902
G1 X88.797 Y89.822 E6.55839
G1 X89.34 Y89.249 E6.59777
G1 X89.525 Y89.07 E6.61061
G1 X86.6 Y89.075 E6.75654
G1 X85.811 Y89.035 E6.79596
G1 X85.031 Y88.916 E6.83532
G1 X84.266 Y88.718 E6.87474
G1 X83.526 Y88.444 E6.91411
G1 X82.817 Y88.096 E6.95352
G1 X82.146 Y87.678 E6.99296
G1 X81.522 Y87.195 E7.03232
G1 X80.949 Y86.652 E7.07171
G1 X80.434 Y86.053 E7.11112
G1 X79.983 Y85.405 E7.15051
G1 X79.599 Y84.714 E7.18995
G1 X79.287 Y83.989 E7.22933
G1 X79.05 Y83.236 E7.26871
G1 X78.891 Y82.462 E7.30813
G1 X78.81 Y81.677 E7.3475
G1 X78.8 Y81.275 E7.36756
G1 X78.8 Y73.4 E7.76045
G0 F3600 X79.2 Y73.4
G1 F1800 X79.24 Y72.632 E7.79882
G1 X79.359 Y71.872 E7.8372
G1 X79.557 Y71.129 E7.87556
G1 X79.831 Y70.41 E7.91395
G1 X80.178 Y69.724 E7.9523
G1 X80.594 Y69.077 E7.99068
G1 X81.075 Y68.477 E8.02904
G1 X81.616 Y67.93 E8.06742
G1 X82.211 Y67.442 E8.10582
G1 X82.853 Y67.019 E8.14417
G1 X83.536 Y66.664 E8.18258
G1 X84.251 Y66.383 E8.2209
G1 X84.993 Y66.177 E8.25932
G1 X85.751 Y66.049 E8.29767
G1 X86.6 Y66 E8.3401
G1 X89.325 Y66 E8.47605
G1 X90.093 Y66.04 E8.51442
G1 X90.853 Y66.159 E8.5528
G1 X91.596 Y66.357 E8.59116
G1 X92.315 Y66.631 E8.62955
G1 X93.001 Y66.978 E8.6679
G1 X93.325 Y67.186 E8.68711
G1 X94.261 Y66.664 E8.74058
G1 X94.976 Y66.383 E8.77891
G1 X95.718 Y66.177 E8.81732
G1 X96.476 Y66.049 E8.85568
G1 X97.325 Y66 E8.8981
G1 X102.325 Y66 E9.14755
G1 X103.093 Y66.04 E9.18592
G1 X103.853 Y66.159 E9.2243
G1 X104.596 Y66.357 E9.26266
G1 X105.315 Y66.631 E9.30105
G1 X106.001 Y66.978 E9.3394
G1 X106.325 Y67.186 E9.35861
G1 X107.261 Y66.664 E9.41208
G1 X107.976 Y66.383 E9.45041
G1 X108.718 Y66.177 E9.48883
G1 X109.476 Y66.049 E9.52718
G1 X110.325 Y66 E9.56961
G1 X113.3 Y66 E9.71803
G1 X114.068 Y66.04 E9.7564
G1 X114.828 Y66.159 E9.79478
G1 X115.571 Y66.357 E9.83314
G1 X116.29 Y66.631 E9.87153
G1 X116.976 Y66.978 E9.90988
G1 X117.623 Y67.394 E9.94826
G1 X118.223 Y67.875 E9.98662
G1 X118.77 Y68.416 E10.025
G1 X119.258 Y69.011 E10.0634
G1 X119.681 Y69.653 E10.10175
G1 X120.036 Y70.336 E10.14016
G1 X120.317 Y71.051 E10.17848
G1 X120.523 Y71.793 E10.2169
G1 X120.651 Y72.551 E10.25525
G1 X120.7 Y73.4 E10.29768
G1 X120.7 Y81.275 E10.69057
G1 X120.66 Y82.043 E10.72893
G1 X120.541 Y82.803 E10.76731
G1 X120.343 Y83.546 E10.80567
G1 X120.069 Y84.265 E10.84406
G1 X119.722 Y84.951 E10.88242
G1 X119.306 Y85.598 E10.92079
G1 X118.825 Y86.198 E10.95916
G1 X118.284 Y86.745 E10.99754
G1 X117.689 Y87.233 E11.03593
G1 X117.047 Y87.656 E11.07429
G1 X116.364 Y88.011 E11.11269
G1 X115.649 Y88.292 E11.15102
G1 X114.907 Y88.498 E11.18944
G1 X114.149 Y88.626 E11.22779
G1 X113.3 Y88.675 E11.27022
G1 X110.325 Y88.675 E11.41864
G1 X109.725 Y88.644 E11.44861
G1 X109.725 Y90.672 E11.54979
G1 X110.108 Y91.253 E11.58451
G1 X110.463 Y91.936 E11.62291
G1 X110.744 Y92.651 E11.66124
G1 X110.95 Y93.393 E11.69966
G1 X111.078 Y94.151 E11.73801
G1 X111.126 Y94.884 E11.77466
G1 X111.211 Y100.284 E12.0441
G1 X111.183 Y101.052 E12.08244
G1 X111.076 Y101.814 E12.12083
G1 X110.89 Y102.56 E12.15919
G1 X110.627 Y103.283 E12.19757
G1 X110.407 Y103.757 E12.22364
G1 X110.153 Y104.256 E12.25158
G1 X109.769 Y104.922 E12.28993
G1 X109.137 Y105.76 E12.34229
G1 X108.515 Y106.414 E12.38732
G1 X107.925 Y106.908 E12.42571
G1 X107.288 Y107.339 E12.46408
G1 X106.609 Y107.701 E12.50247
G1 X105.552 Y108.101 E12.55886
G1 X104.463 Y108.379 E12.61493
G1 X103.7 Y108.478 E12.65332
G1 X103.129 Y108.5 E12.68182
G1 X102.62 Y108.5 E12.70722
G1 X101.852 Y108.46 E12.74559
G1 X100.864 Y108.289 E12.79561
G1 X99.768 Y107.984 E12.85237
G1 X99.329 Y108.131 E12.87546
G1 X98.578 Y108.298 E12.91385
G1 X97.814 Y108.386 E12.95222
G1 X96.839 Y108.4 E13.00086
G1 X96.071 Y108.36 E13.03923
G1 X95.124 Y108.199 E13.08715
G1 X94.7 Y108.098 E13.1089
G1 X93.713 Y107.788 E13.16051
G1 X93.203 Y107.588 E13.18784
G1 X92.503 Y107.271 E13.22618
G1 X91.839 Y106.882 E13.26457
G1 X91.333 Y106.518 E13.29567
G1 X90.502 Y105.814 E13.35001
G1 X89.978 Y105.25 E13.38842
G1 X89.416 Y104.483 E13.43586
G1 X88.78 Y103.413 E13.49796
G1 X88.472 Y102.708 E13.53634
G1 X88.239 Y101.975 E13.57471
G1 X88.083 Y101.222 E13.61308
G1 X87.997 Y100.1 E13.66922
G1 X87.997 Y99.375 E13.70539
G1 X87.806 Y98.945 E13.72886
G1 X87.569 Y98.214 E13.7672
G1 X87.409 Y97.461 E13.80561
G1 X87.328 Y96.696 E13.84399
G1 X87.317 Y96.3 E13.86375
G1 X87.317 Y94.9 E13.9336
G1 X87.357 Y94.132 E13.97196
G1 X87.476 Y93.372 E14.01034
G1 X87.674 Y92.629 E14.0487
G1 X87.948 Y91.91 E14.08709
G1 X88.295 Y91.224 E14.12545
G1 X88.711 Y90.577 E14.16382
G1 X89.192 Y89.977 E14.20219
G1 X89.733 Y89.43 E14.24057
G1 X89.925 Y89.273 E14.25294
G1 X89.925 Y88.64 E14.28452
G1 X89.325 Y88.675 E14.31451
G1 X86.6 Y88.675 E14.45046
G1 X85.832 Y88.635 E14.48883
G1 X85.072 Y88.516 E14.52721
G1 X84.329 Y88.318 E14.56557
G1 X83.61 Y88.044 E14.60396
G1 X82.924 Y87.697 E14.64231
G1 X82.277 Y87.281 E14.68068
G1 X81.677 Y86.8 E14.71905
G1 X81.13 Y86.259 E14.75743
G1 X80.642 Y85.664 E14.79582
G1 X80.219 Y85.022 E14.83418
G1 X79.864 Y84.339 E14.87258
G1 X79.583 Y83.624 E14.91091
G1 X79.377 Y82.882 E14.94933
G1 X79.249 Y82.124 E14.98768
G1 X79.2 Y81.275 E15.03011
G1 X79.2 Y73.4 E15.423
G0 F3600 X79.6 Y73.4
G1 F1800 X79.64 Y72.653 E15.46032
G1 X79.759 Y71.915 E15.49761
G1 X79.957 Y71.193 E15.53496
G1 X80.23 Y70.497 E15.57226
G1 X80.577 Y69.834 E15.60959
G1 X80.992 Y69.211 E15.64694
G1 X81.471 Y68.637 E15.68424
G1 X82.008 Y68.116 E15.72157
G1 X82.598 Y67.657 E15.75886
G1 X83.234 Y67.262 E15.79621
G1 X83.908 Y66.938 E15.83352
G1 X84.613 Y66.688 E15.87084
G1 X85.341 Y66.514 E15.90818
G1 X86.083 Y66.419 E15.9455
G1 X86.6 Y66.4 E15.97132
G1 X89.325 Y66.4 E16.10727
G1 X90.072 Y66.44 E16.14459
G1 X90.81 Y66.559 E16.18188
G1 X91.532 Y66.757 E16.21923
G1 X92.228 Y67.03 E16.25653
G1 X92.891 Y67.377 E16.29387
G1 X93.318 Y67.661 E16.31945
G1 X93.959 Y67.262 E16.35712
G1 X94.633 Y66.938 E16.39443
G1 X95.338 Y66.688 E16.43175
G1 X96.066 Y66.514 E16.46909
G1 X96.808 Y66.419 E16.50641
G1 X97.325 Y66.4 E16.53222
G1 X102.325 Y66.4 E16.78167
G1 X103.072 Y66.44 E16.81899
G1 X103.81 Y66.559 E16.85629
G1 X104.532 Y66.757 E16.89364
G1 X105.228 Y67.03 E16.93094
G1 X105.891 Y67.377 E16.96827
G1 X106.318 Y67.661 E16.99386
G1 X106.959 Y67.262 E17.03153
G1 X107.633 Y66.938 E17.06884
G1 X108.338 Y66.688 E17.10615
G1 X109.066 Y66.514 E17.1435
G1 X109.808 Y66.419 E17.18082
G1 X110.325 Y66.4 E17.20663
G1 X113.3 Y66.4 E17.35505
G1 X114.047 Y66.44 E17.39237
G1 X114.785 Y66.559 E17.42967
G1 X115.507 Y66.757 E17.46702
G1 X116.203 Y67.03 E17.50432
G1 X116.866 Y67.377 E17.54165
G1 X117.489 Y67.792 E17.579
G1 X118.063 Y68.271 E17.6163
G1 X118.584 Y68.808 E17.65362
G1 X119.043 Y69.398 E17.69092
G1 X119.438 Y70.034 E17.72827
G1 X119.762 Y70.708 E17.76558
G1 X120.012 Y71.413 E17.8029
G1 X120.186 Y72.141 E17.84024
G1 X120.281 Y72.883 E17.87756
G1 X120.3 Y73.4 E17.90337
G1 X120.3 Y81.275 E18.29626
G1 X120.26 Y82.022 E18.33358
G1 X120.141 Y82.76 E18.37087
G1 X119.943 Y83.482 E18.40822
G1 X119.67 Y84.178 E18.44552
G1 X119.323 Y84.841 E18.48286
G1 X118.908 Y85.464 E18.5202
G1 X118.429 Y86.038 E18.5575
G1 X117.892 Y86.559 E18.59483
G1 X117.302 Y87.018 E18.63212
G1 X116.666 Y87.413 E18.66947
G1 X115.992 Y87.737 E18.70678
G1 X115.287 Y87.987 E18.7441
G1 X114.559 Y88.161 E18.78145
G1 X113.817 Y88.256 E18.81877
G1 X113.3 Y88.275 E18.84458
G1 X110.325 Y88.275 E18.993
G1 X109.578 Y88.235 E19.03032
G1 X109.325 Y88.194 E19.04311
G1 X109.325 Y90.811 E19.17367
G1 X109.865 Y91.634 E19.22278
G1 X110.189 Y92.308 E19.26009
G1 X110.439 Y93.013 E19.29741
G1 X110.613 Y93.741 E19.33475
G1 X110.708 Y94.483 E19.37207
G1 X110.726 Y94.89 E19.3924
G1 X110.811 Y100.29 E19.66184
G1 X110.783 Y101.037 E19.69913
G1 X110.675 Y101.778 E19.73649
G1 X110.489 Y102.502 E19.77379
G1 X110.226 Y103.203 E19.81114
G1 X109.796 Y104.074 E19.8596
G1 X109.422 Y104.722 E19.89693
G1 X108.836 Y105.497 E19.9454
G1 X108.227 Y106.135 E19.9894
G1 X107.652 Y106.614 E20.02674
G1 X107.029 Y107.028 E20.06406
G1 X106.365 Y107.373 E20.10139
G1 X105.44 Y107.717 E20.15063
G1 X104.371 Y107.989 E20.20566
G1 X103.629 Y108.082 E20.24297
G1 X103.129 Y108.1 E20.26793
G1 X102.62 Y108.1 E20.29332
G1 X101.873 Y108.06 E20.33064
G1 X100.959 Y107.9 E20.37694
G1 X99.809 Y107.578 E20.43652
G1 X99.771 Y107.562 E20.43857
G1 X99.202 Y107.751 E20.46849
G1 X98.472 Y107.91 E20.50576
G1 X97.728 Y107.99 E20.54309
G1 X96.839 Y108 E20.58745
G1 X96.092 Y107.96 E20.62477
G1 X95.217 Y107.809 E20.66907
G1 X93.859 Y107.416 E20.7396
G1 X93.349 Y107.216 E20.76693
G1 X92.669 Y106.906 E20.80421
G1 X92.025 Y106.525 E20.84155
G1 X91.58 Y106.203 E20.86895
G1 X90.766 Y105.512 E20.92222
G1 X90.259 Y104.962 E20.95954
G1 X89.753 Y104.268 E21.00239
G1 X89.129 Y103.216 E21.06341
G1 X88.832 Y102.529 E21.10075
G1 X88.61 Y101.814 E21.1381
G1 X88.466 Y101.08 E21.17542
G1 X88.397 Y100.1 E21.22443
G1 X88.397 Y99.305 E21.2641
G1 X88.123 Y98.648 E21.29961
G1 X87.91 Y97.931 E21.33693
G1 X87.775 Y97.195 E21.37426
G1 X87.717 Y96.3 E21.419
G1 X87.717 Y94.9 E21.48885
G1 X87.757 Y94.153 E21.52617
G1 X87.876 Y93.415 E21.56347
G1 X88.074 Y92.693 E21.60082
G1 X88.347 Y91.997 E21.63812
G1 X88.694 Y91.334 E21.67545
G1 X89.109 Y90.711 E21.7128
G1 X89.588 Y90.137 E21.75009
G1 X90.125 Y89.616 E21.78742
G1 X90.325 Y89.46 E21.80008
G1 X90.325 Y88.194 E21.86324
G1 X89.325 Y88.275 E21.91329
G1 X86.6 Y88.275 E22.04924
G1 X85.853 Y88.235 E22.08656
G1 X85.115 Y88.116 E22.12386
G1 X84.393 Y87.918 E22.16121
G1 X83.697 Y87.645 E22.19851
G1 X83.034 Y87.298 E22.23584
G1 X82.411 Y86.883 E22.27319
G1 X81.837 Y86.404 E22.31049
G1 X81.316 Y85.867 E22.34781
G1 X80.857 Y85.277 E22.38511
G1 X80.462 Y84.641 E22.42246
G1 X80.138 Y83.967 E22.45977
G1 X79.888 Y83.262 E22.49709
G1 X79.714 Y82.534 E22.53443
G1 X79.619 Y81.792 E22.57175
G1 X79.6 Y81.275 E22.59756
G1 X79.6 Y73.4 E22.99045
G0 F3600 X80 Y73.4
G1 F1800 X80.04 Y72.675 E23.02667
G1 X80.159 Y71.958 E23.06293
G1 X80.357 Y71.259 E23.09918
G1 X80.63 Y70.586 E23.13541
G1 X80.975 Y69.947 E23.17164
G1 X81.389 Y69.35 E23.20789
G1 X81.865 Y68.802 E23.2441
G1 X82.399 Y68.309 E23.28036
G1 X82.984 Y67.879 E23.31658
G1 X83.613 Y67.515 E23.35284
G1 X84.278 Y67.222 E23.38909
G1 X84.971 Y67.004 E23.42534
G1 X85.683 Y66.864 E23.46154
G1 X86.6 Y66.8 E23.5074
G1 X89.325 Y66.8 E23.64335
G1 X90.05 Y66.84 E23.67958
G1 X90.767 Y66.959 E23.71584
G1 X91.466 Y67.157 E23.75208
G1 X92.139 Y67.43 E23.78832
G1 X92.778 Y67.775 E23.82455
G1 X93.33 Y68.158 E23.85806
G1 X93.709 Y67.879 E23.88154
G1 X94.338 Y67.515 E23.9178
G1 X95.003 Y67.222 E23.95405
G1 X95.696 Y67.004 E23.9903
G1 X96.408 Y66.864 E24.0265
G1 X97.325 Y66.8 E24.07236
G1 X102.325 Y66.8 E24.32181
G1 X103.05 Y66.84 E24.35804
G1 X103.767 Y66.959 E24.3943
G1 X104.466 Y67.157 E24.43054
G1 X105.139 Y67.43 E24.46678
G1 X105.778 Y67.775 E24.50301
G1 X106.33 Y68.158 E24.53653
G1 X106.709 Y67.879 E24.56001
